X: 253
T:Victime paschali laudes
N: Derived from Jos2207-Victime_paschali_laudes.krn
C: Josquin des Prez
%%abc-version 2.0
%%abcx-abcm2ps-target-version 5.9.1 (29 Sep 2008)
%%abc-creator hum2abc beta
%%abcx-conversion-date 2019/02/12 16:15:51
%%abc-edited-by Jesse Rodin
%%abc-edited-by Will Watson 10/09/2011
%%abcx-initial-encoding-date 2011/04/30/
%%humdrum-veritas 3963567602
%%humdrum-veritas-data 3545842367
%%linebreak <none>
%%barnumbers 0
L: 1/4
M: 2/1
Q: 1/2=120
V: 1 clef=treble
V: 2 clef=treble-8
V: 3 clef=treble-8
V: 4 clef=treble-8
V: 5 clef=bass
V: 6 clef=bass
K: F
[V:1] z8 | 
[V:2] z8 | 
[V:3] z8 | 
[V:4] G8- | 
[V:5] G,,6A,,2 | 
[V:6] z4G,,4- | 
[V:1] z8 | 
[V:2] z8 | 
[V:3] z8 | 
[V:4] G4F4- | 
[V:5] B,,2C,2D,4- | 
[V:6] G,,2A,,2B,,3C, | 
[V:1] z8 | 
[V:2] z8 | 
[V:3] z8 | 
[V:4] F8 | 
[V:5] D,2B,,3C,D,2 | 
[V:6] D,6B,,2- | 
[V:1] z8 | 
[V:2] z8 | 
[V:3] z8 | 
[V:4] G6D2- | 
[V:5] G,,4z4 | 
[V:6] B,,C,D,2G,,4- | 
[V:1] z8 | 
[V:2] d8- | 
[V:3] z8 | 
[V:4] D2E2F2G2 | 
[V:5] D,6E,2 | 
[V:6] G,,4z2D,2- | 
[V:1] z8 | 
[V:2] d8 | 
[V:3] z8 | 
[V:4] A4D4 | 
[V:5] F,2G,2A,4- | 
[V:6] D,2E,2F,3G, | 
[V:1] z8 | 
[V:2] c8 | 
[V:3] z8 | 
[V:4] z8 | 
[V:5] A,2F,3G,A,2 | 
[V:6] A,4F,3G, | 
[V:1] z8 | 
[V:2] d8 | 
[V:3] z8 | 
[V:4] z8 | 
[V:5] D,4z4 | 
[V:6] A,2D,4z2 | 
[V:1] G8- | 
[V:2] G3AB2c2 | 
[V:3] z4G4- | 
[V:4] z2G4A2 | 
[V:5] z8 | 
[V:6] z8 | 
[V:1] G8 | 
[V:2] d4G4 | 
[V:3] G2A2B2c2 | 
[V:4] B2c2d4- | 
[V:5] z8 | 
[V:6] z8 | 
[V:1] F8 | 
[V:2] z8 | 
[V:3] d6B2- | 
[V:4] d2B3cd2 | 
[V:5] z8 | 
[V:6] z8 | 
[V:1] G8 | 
[V:2] z8 | 
[V:3] Bcd2G4 | 
[V:4] G2B3AG2- | 
[V:5] z4z2G,,2- | 
[V:6] z2G,,3A,,B,,C, | 
[V:1] z8 | 
[V:2] B8 | 
[V:3] z8 | 
[V:4] G2FED2E2 | 
[V:5] G,,A,,B,,C,D,2G,,2 | 
[V:6] D,C,D,E,F,E,/F,/G,2- | 
[V:1] z8 | 
[V:2] c4B4 | 
[V:3] z8 | 
[V:4] C4D4 | 
[V:5] A,,4G,,2D,E, | 
[V:6] G,2F,2G,2G,,2 | 
[V:1] z8 | 
[V:2] A2G2A4 | 
[V:3] z8 | 
[V:4] z8 | 
[V:5] F,E,/F,/G,4F,2 | 
[V:6] A,,2B,,2C,2D,2 | 
[V:1] B8 | 
[V:2] G4z2d2- | 
[V:3] z8 | 
[V:4] z2B3AG2- | 
[V:5] G,4G,,4 | 
[V:6] E,2F,2G,2B,2 | 
[V:1] c4B4 | 
[V:2] def2e2d2- | 
[V:3] z2A2Bcde | 
[V:4] G2F2G4 | 
[V:5] z8 | 
[V:6] A,4G,4 | 
[V:1] A2G2A4 | 
[V:2] d2c2d4- | 
[V:3] f2g3^f/e/^f2 | 
[V:4] F2E2D4 | 
[V:5] z8 | 
[V:6] z8 | 
[V:1] G4z4 | 
[V:2] d4z2d2- | 
[V:3] g3fd2f2- | 
[V:4] z2B4A2 | 
[V:5] G,,3A,,B,,C,D,E, | 
[V:6] z2G,4F,2 | 
[V:1] z8 | 
[V:2] d2c2A2c2- | 
[V:3] f2edc4 | 
[V:4] F3EF2G2 | 
[V:5] F,G,A,3G,G,2- | 
[V:6] D,2F,4E,2 | 
[V:1] z8 | 
[V:2] c2B2G2B2- | 
[V:3] d4z4 | 
[V:4] A2B2c2d2 | 
[V:5] G,2F,2E,2D,2 | 
[V:6] D,4C,2B,,2 | 
[V:1] z8 | 
[V:2] BAA3GG2- | 
[V:3] z8 | 
[V:4] G2c2d3e | 
[V:5] E,4D,4 | 
[V:6] C,4B,,2G,,2 | 
[V:1] z8 | 
[V:2] G2^F2G4 | 
[V:3] z4g3f | 
[V:4] fedcB3G | 
[V:5] z4z2G,2 | 
[V:6] A,,4G,,4 | 
[V:1] z2d4c2 | 
[V:2] z8 | 
[V:3] d2f4ed | 
[V:4] B2A2F2c2- | 
[V:5] G,2F,2D,2F,2- | 
[V:6] D,4z2A,2- | 
[V:1] A2c4B2 | 
[V:2] z8 | 
[V:3] c2e4dc | 
[V:4] cBG2z4 | 
[V:5] F,2E,2C,2E,2- | 
[V:6] A,2G,2E,2G,2- | 
[V:1] G2B3AA2- | 
[V:2] z2d4c2- | 
[V:3] (3B3cd2G2_e2- | 
[V:4] z8 | 
[V:5] E,2D,2B,,2C,2 | 
[V:6] G,2F,2D,2_E,2 | 
[V:1] AGG4^F2 | 
[V:2] cBAGA4 | 
[V:3] e2c2d4 | 
[V:4] z2G2d3c | 
[V:5] _E,4D,4 | 
[V:6] C,4F,3D, | 
[V:1] G8 | 
[V:2] G8 | 
[V:3] d8- | 
[V:4] BAB4AG | 
[V:5] G,,8 | 
[V:6] D,4z2D,2 | 
[V:1] z8 | 
[V:2] z8 | 
[V:3] d4z4 | 
[V:4] A4GABG | 
[V:5] z2D,2E,F,G,E, | 
[V:6] F,4G,4 | 
[V:1] z8 | 
[V:2] d8 | 
[V:3] z8 | 
[V:4] A2G2B4 | 
[V:5] F,2G,2G,,A,,B,,C, | 
[V:6] D,2B,3A,G,2 | 
[V:1] z8 | 
[V:2] f4g4 | 
[V:3] z8 | 
[V:4] A4G4 | 
[V:5] D,E,F,2C,2E,2- | 
[V:6] F,2D,2E,2G,2- | 
[V:1] z8 | 
[V:2] d8 | 
[V:3] z8 | 
[V:4] z2A4G2 | 
[V:5] E,D,D,3C,B,,2 | 
[V:6] G,2F,2G,F,E,D, | 
[V:1] z8 | 
[V:2] c4d4 | 
[V:3] z8 | 
[V:4] A3GF2E2 | 
[V:5] A,,4D,4- | 
[V:6] E,4D,2A,2- | 
[V:1] z8 | 
[V:2] d8 | 
[V:3] z4z2d2- | 
[V:4] D4F3G | 
[V:5] D,2G,,2D,4 | 
[V:6] A,2G,2A,3G, | 
[V:1] z8 | 
[V:2] z4z2g2- | 
[V:3] d2c2d3c | 
[V:4] A3GFEG2 | 
[V:5] A,,4z4 | 
[V:6] F,2E,2D,2G,,A,, | 
[V:1] z8 | 
[V:2] g2f2g2GA | 
[V:3] B2A2G2B2- | 
[V:4] D8 | 
[V:5] z8 | 
[V:6] B,,C,D,2G,,4- | 
[V:1] d4c4 | 
[V:2] Bcdefedc | 
[V:3] B2AGA4 | 
[V:4] z8 | 
[V:5] z8 | 
[V:6] G,,4z4 | 
[V:1] d6c2 | 
[V:2] Bcdefga2- | 
[V:3] GABcdefe/f/ | 
[V:4] z8 | 
[V:5] z8 | 
[V:6] z8 | 
[V:1] B4A4 | 
[V:2] agg4f2 | 
[V:3] g3fdefd | 
[V:4] z4z2F2 | 
[V:5] z8 | 
[V:6] z8 | 
[V:1] G8 | 
[V:2] g2c2g3f | 
[V:3] e2cdefg2 | 
[V:4] c6G2 | 
[V:5] z8 | 
[V:6] z2C,2C,2C,2 | 
[V:1] z4z2G2 | 
[V:2] edc3BG2 | 
[V:3] c2f4e2 | 
[V:4] A4G4 | 
[V:5] z8 | 
[V:6] A,,3B,,C,4 | 
[V:1] A2c3BG2 | 
[V:2] c8 | 
[V:3] f2FGABc2 | 
[V:4] F4z4 | 
[V:5] z2C,2C,2C,2 | 
[V:6] F,,4z4 | 
[V:1] B4A2G2- | 
[V:2] z2G2c4 | 
[V:3] B2G2A2c2- | 
[V:4] z8 | 
[V:5] G,4F,2E,2 | 
[V:6] z4z2C,2 | 
[V:1] GFF4E2 | 
[V:2] A2F2G4 | 
[V:3] c2B2c4 | 
[V:4] z8 | 
[V:5] D,4C,4 | 
[V:6] F,2D,2E,2C,2 | 
[V:1] F4z4 | 
[V:2] F4z4 | 
[V:3] z2c2d2g2 | 
[V:4] z2A2B3A | 
[V:5] z8 | 
[V:6] F,4z2G,2 | 
[V:1] z8 | 
[V:2] z8 | 
[V:3] f2_e3dd2 | 
[V:4] F2G4F2 | 
[V:5] z4z2F,2 | 
[V:6] A,2B,3A,A,2- | 
[V:1] z4z2F2 | 
[V:2] z8 | 
[V:3] B3cd_ed2- | 
[V:4] E4D4 | 
[V:5] G,2B,3G,A,2- | 
[V:6] A,G,G,4F,2 | 
[V:1] G2B3AA2- | 
[V:2] z2d2f4 | 
[V:3] d2G2z2A2 | 
[V:4] z2G2A2d2 | 
[V:5] A,G,G,4F,2 | 
[V:6] E,3D,D,4 | 
[V:1] AGG4^F2 | 
[V:2] g4d4- | 
[V:3] B2c2d4 | 
[V:4] cBAGA4 | 
[V:5] E,4D,4 | 
[V:6] G,2C,2F,4 | 
[V:1] G4z2d2- | 
[V:2] d8- | 
[V:3] G8 | 
[V:4] G8 | 
[V:5] G,,8 | 
[V:6] D,4z2D,2 | 
[V:1] dcA2B4 | 
[V:2] d8- | 
[V:3] z4d4 | 
[V:4] z2d2B2G2 | 
[V:5] z8 | 
[V:6] F,4G,4 | 
[V:1] A2d3cB2- | 
[V:2] d8- | 
[V:3] f2g2d2g2 | 
[V:4] A2B3cd2- | 
[V:5] z4G,,4 | 
[V:6] D,2G,,2B,,3C, | 
[V:1] BAGFc4 | 
[V:2] d4c4 | 
[V:3] f2d2g4- | 
[V:4] dcBAG4 | 
[V:5] B,,4C,4 | 
[V:6] D,4_E,4 | 
[V:1] B4A3G | 
[V:2] d4d4 | 
[V:3] g2fef3e | 
[V:4] d6cB | 
[V:5] G,,4D,3E, | 
[V:6] D,8 | 
[V:1] A2B3GAB | 
[V:2] z8 | 
[V:3] dce3dd2- | 
[V:4] A2G2z4 | 
[V:5] F,2G,3F,E,D, | 
[V:6] z4z2A,2- | 
[V:1] cBAGF4 | 
[V:2] z8 | 
[V:3] d2^c2d4- | 
[V:4] z8 | 
[V:5] _E,4D,4 | 
[V:6] A,2G,2A,4 | 
[V:1] z2B2A2F2 | 
[V:2] z4z2d2- | 
[V:3] d4z4 | 
[V:4] z2B2c2d2 | 
[V:5] z8 | 
[V:6] G,4F,2D,2 | 
[V:1] G4F2DE | 
[V:2] d2c2d2f2- | 
[V:3] z8 | 
[V:4] B2G2A2d2- | 
[V:5] z8 | 
[V:6] _E,4D,4- | 
[V:1] FGABc2A2- | 
[V:2] fed2c2d2 | 
[V:3] z8 | 
[V:4] d2cBA2F2 | 
[V:5] z4F,4 | 
[V:6] D,4z4 | 
[V:1] AGG4^F2 | 
[V:2] B2G2A4 | 
[V:3] z4z2d2 | 
[V:4] B3cd4 | 
[V:5] G,4D,4 | 
[V:6] z8 | 
[V:1] G4z2D2 | 
[V:2] G4z4 | 
[V:3] d2c2d4 | 
[V:4] z4z2B2 | 
[V:5] E,4D,4 | 
[V:6] z2G,4F,2 | 
[V:1] E2G3FED | 
[V:2] z8 | 
[V:3] G4z2c2 | 
[V:4] c4G4 | 
[V:5] C,8 | 
[V:6] G,2E,3F,G,E, | 
[V:1] C2F4E2 | 
[V:2] z8 | 
[V:3] A2B2c4 | 
[V:4] A2F2G4 | 
[V:5] z2D,2E,2C,2 | 
[V:6] F,2D,2C,4 | 
[V:1] F4z4 | 
[V:2] z2A2B2c2 | 
[V:3] z2F2B2G2 | 
[V:4] F4z2G2 | 
[V:5] D,4G,,2G,2 | 
[V:6] z2F,2G,2A,2 | 
[V:1] A4B2G2 | 
[V:2] A4G4 | 
[V:3] d8- | 
[V:4] F2D2G4 | 
[V:5] A,2F,2G,2D,E, | 
[V:6] D,4z2G,,2 | 
[V:1] A4D2B2 | 
[V:2] z2A4B2 | 
[V:3] d8 | 
[V:4] F4z4 | 
[V:5] F,G,A,3G,G,2- | 
[V:6] D,3E,F,2G,2 | 
[V:1] A2c3BA2- | 
[V:2] c3d_ecd2 | 
[V:3] z2f2_e2f2 | 
[V:4] z8 | 
[V:5] G,2F,2G,2D,2 | 
[V:6] A,4G,2F,2 | 
[V:1] AGG4^F2 | 
[V:2] B2c2A4 | 
[V:3] B2_e2d4 | 
[V:4] z4z2A2 | 
[V:5] _E,2C,2D,4 | 
[V:6] G,2_E,2F,4 | 
[V:1] G8 | 
[V:2] G8- | 
[V:3] d8- | 
[V:4] B3cd3c | 
[V:5] G,,8 | 
[V:6] D,4z2G,,2 | 
[V:1] z8 | 
[V:2] G4z4 | 
[V:3] d8- | 
[V:4] BAB4AG | 
[V:5] z2G,,2B,,3C, | 
[V:6] B,,3C,D,3E, | 
[V:1] z8 | 
[V:2] z4z2d2 | 
[V:3] d8 | 
[V:4] F3GA2B2 | 
[V:5] D,3E,F,2G,2 | 
[V:6] F,G,A,3G,G,2- | 
[V:1] z8 | 
[V:2] f4g4 | 
[V:3] z8 | 
[V:4] A4G4- | 
[V:5] D,4z2G,,2 | 
[V:6] G,2F,2E,2D,2- | 
[V:1] z8 | 
[V:2] d2g3fed | 
[V:3] z8 | 
[V:4] G8- | 
[V:5] B,,2C,2G,,2C,2- | 
[V:6] D,2C,2D,2E,2- | 
[V:1] z8 | 
[V:2] c2d2c2f2- | 
[V:3] z8 | 
[V:4] G4z2D2 | 
[V:5] C,2B,,2C,2D,2- | 
[V:6] E,2D,2E,2D,2- | 
[V:1] z8 | 
[V:2] fed3cc2 | 
[V:3] z2A2c4 | 
[V:4] F3GA4 | 
[V:5] D,2C,B,,A,,4 | 
[V:6] D,E,F,D,E,4 | 
[V:1] D4F4 | 
[V:2] F3GA2d2- | 
[V:3] d2f3edc | 
[V:4] A2d3cA2 | 
[V:5] z8 | 
[V:6] D,8 | 
[V:1] G3AB2A2- | 
[V:2] dcBAG2A2 | 
[V:3] c4d3c | 
[V:4] B2G4F2 | 
[V:5] z8 | 
[V:6] z8 | 
[V:1] AGG4^F2 | 
[V:2] B2c2d4 | 
[V:3] B2AGA4 | 
[V:4] G2E2D4 | 
[V:5] z4z2D,2 | 
[V:6] z4z2F,2 | 
[V:1] G4z2F2 | 
[V:2] d8- | 
[V:3] G2d3cA2 | 
[V:4] z4z2D2 | 
[V:5] B,,2G,,2D,4 | 
[V:6] B,4A,4 | 
[V:1] B2G2A4 | 
[V:2] d8 | 
[V:3] B4A4 | 
[V:4] D3EFGA2- | 
[V:5] G,,4z2D,2- | 
[V:6] G,4z2F,2 | 
[V:1] z8 | 
[V:2] z8 | 
[V:3] z8 | 
[V:4] AFG2F2A2- | 
[V:5] D,2E,2D,2F,2- | 
[V:6] B,2G,2A,2D,E, | 
[V:1] z8 | 
[V:2] z4z2G2 | 
[V:3] z8 | 
[V:4] AGFED2E2 | 
[V:5] F,E,D,C,B,,2C,2 | 
[V:6] F,G,A,3G,G,2- | 
[V:1] z2F2B2G2 | 
[V:2] c2A2B4 | 
[V:3] z2c2B2d2- | 
[V:4] C4D2G2 | 
[V:5] A,,4G,,4 | 
[V:6] G,2F,2G,2D,2 | 
[V:1] A2DEFGA2- | 
[V:2] A4d3c | 
[V:3] d2cBA2f2 | 
[V:4] F2A3Df2- | 
[V:5] D,8 | 
[V:6] F,3G,A,2D,2 | 
[V:1] AGG4^F2 | 
[V:2] B2AGA4 | 
[V:3] g3efedc | 
[V:4] f2e2f4 | 
[V:5] E,4D,4 | 
[V:6] G,4z2D,2 | 
[V:1] G8- | 
[V:2] G8- | 
[V:3] B4z2_e2 | 
[V:4] z2d2c3B | 
[V:5] G,,4C,4- | 
[V:6] D,4_E,4- | 
[V:1] G8- | 
[V:2] G8- | 
[V:3] c2d4c2 | 
[V:4] G2B2G3A | 
[V:5] C,2B,,2C,4 | 
[V:6] E,2D,2_E,4 | 
[V:1] G8 ||  
[V:2] G8 ||  
[V:3] d4d4 ||  
[V:4] B8 ||  
[V:5] G,,8 ||  
[V:6] D,8 ||  
[V:1] [M:2/1]z8 | 
[V:2] [M:2/1]B8- | 
[V:3] [M:2/1]z8 | 
[V:4] [M:2/1]z8 | 
[V:5] [M:2/1]G,,3A,,B,,2C,2 | 
[V:6] [M:2/1]z4G,,3A,, | 
[V:1] z8 | 
[V:2] B8 | 
[V:3] z8 | 
[V:4] z8 | 
[V:5] D,2E,2F,2G,2 | 
[V:6] B,,2C,2D,2E,2 | 
[V:1] z8 | 
[V:2] d8 | 
[V:3] z8 | 
[V:4] D3EF2G2 | 
[V:5] A,2D,4C,B,, | 
[V:6] F,2G,2A,2D,2 | 
[V:1] z8 | 
[V:2] c8 | 
[V:3] z8 | 
[V:4] A3BcBAG | 
[V:5] A,,3G,,A,,4 | 
[V:6] F,3G,E,4 | 
[V:1] z8 | 
[V:2] d4B2c2- | 
[V:3] z8 | 
[V:4] F2B3AA2- | 
[V:5] z2D,4C,2 | 
[V:6] D,4z4 | 
[V:1] z8 | 
[V:2] cBAGA4 | 
[V:3] z8 | 
[V:4] AGG4F2 | 
[V:5] E,4D,4 | 
[V:6] z4z2D,2 | 
[V:1] z8 | 
[V:2] z2G2A2c2- | 
[V:3] z8 | 
[V:4] G4z4 | 
[V:5] C,2B,,2A,,4 | 
[V:6] E,2G,4F,2 | 
[V:1] z8 | 
[V:2] c2B2c4 | 
[V:3] z8 | 
[V:4] z8 | 
[V:5] G,,4z4 | 
[V:6] G,F,E,D,E,4 | 
[V:1] z8 | 
[V:2] d6cB | 
[V:3] z8 | 
[V:4] z2G2A2c2- | 
[V:5] z2G,,2D,2E,2 | 
[V:6] D,4z4 | 
[V:1] z8 | 
[V:2] A2B2G4 | 
[V:3] z8 | 
[V:4] c2B2c4 | 
[V:5] F,2G,2E,4 | 
[V:6] z8 | 
[V:1] z8 | 
[V:2] A4z2f2 | 
[V:3] z8 | 
[V:4] d4c4 | 
[V:5] D,2F,2G,2A,2 | 
[V:6] z2D,2E,2F,2 | 
[V:1] z8 | 
[V:2] d2d2g3f | 
[V:3] z8 | 
[V:4] B4c4- | 
[V:5] B,2G,3F,E,D, | 
[V:6] G,4C,3D, | 
[V:1] z8 | 
[V:2] ede2d4 | 
[V:3] z8 | 
[V:4] c2B2A4 | 
[V:5] C,4D,4 | 
[V:6] E,F,G,4^F,2 | 
[V:1] D8 | 
[V:2] d4z4 | 
[V:3] z2G2B3c | 
[V:4] G8 | 
[V:5] G,,8 | 
[V:6] G,4z4 | 
[V:1] F4G4 | 
[V:2] z8 | 
[V:3] d2f3e/d/e2- | 
[V:4] z2F2c4 | 
[V:5] z8 | 
[V:6] z8 | 
[V:1] B8 | 
[V:2] z2GABcd2- | 
[V:3] edd4g2- | 
[V:4] G2B4AG | 
[V:5] z8 | 
[V:6] z8 | 
[V:1] c4B2A2- | 
[V:2] d2c2d4 | 
[V:3] g2f2g2d2 | 
[V:4] A4G2F2 | 
[V:5] z8 | 
[V:6] z8 | 
[V:1] AGG4^F2 | 
[V:2] cBAGA4 | 
[V:3] e2c2d4 | 
[V:4] E4D2A2 | 
[V:5] z8 | 
[V:6] z4z2D,2 | 
[V:1] G4z4 | 
[V:2] G2G2c3B | 
[V:3] d4z4 | 
[V:4] B3AG2A2- | 
[V:5] z8 | 
[V:6] G,3F,E,2F,2- | 
[V:1] z8 | 
[V:2] A2d4^c2 | 
[V:3] z4z2c2 | 
[V:4] A2GFG4 | 
[V:5] z8 | 
[V:6] F,2E,D,E,4 | 
[V:1] z2F2B3A | 
[V:2] d4z2G2 | 
[V:3] f3ed2g2- | 
[V:4] A4z4 | 
[V:5] z8 | 
[V:6] D,4G,3F, | 
[V:1] G2c3BAG | 
[V:2] c3BA2d2 | 
[V:3] gfedc2A2- | 
[V:4] z8 | 
[V:5] z8 | 
[V:6] E,D,C,2F,,2F,2- | 
[V:1] A2G4^F2 | 
[V:2] cBAGA4 | 
[V:3] A2e2fedc | 
[V:4] z2B2d4- | 
[V:5] z8 | 
[V:6] F,G,E,2D,4 | 
[V:1] G8 | 
[V:2] G8 | 
[V:3] B4z2G2 | 
[V:4] d4c4 | 
[V:5] z2G,,2C,4 | 
[V:6] G,,4z4 | 
[V:1] z8 | 
[V:2] z2B2d4 | 
[V:3] B3AG2F2 | 
[V:4] d4B4 | 
[V:5] B,,2G,,2B,,4 | 
[V:6] z2G,3F,D,2 | 
[V:1] z8 | 
[V:2] c4d4 | 
[V:3] A4z2A2 | 
[V:4] c4A4 | 
[V:5] A,,4z2D,2 | 
[V:6] E,4D,2F,2 | 
[V:1] z8 | 
[V:2] B4c4- | 
[V:3] (3B3cd2G2cd | 
[V:4] G4z2A2 | 
[V:5] G,,2G,3E,F,2 | 
[V:6] G,2B,3A,A,2 | 
[V:1] z8 | 
[V:2] c2B2A4 | 
[V:3] efg4^f2 | 
[V:4] B2d3cA2 | 
[V:5] G,2G,,2D,4 | 
[V:6] G,4z4 | 
[V:1] z8 | 
[V:2] G4z2G2 | 
[V:3] g4z2d2- | 
[V:4] B4z4 | 
[V:5] G,,8 | 
[V:6] z2D,2E,2G,2- | 
[V:1] z4z2G2 | 
[V:2] A2c4B2 | 
[V:3] def2d2gf | 
[V:4] z8 | 
[V:5] z8 | 
[V:6] G,2F,2G,4 | 
[V:1] c4A2d2- | 
[V:2] c4d2f2- | 
[V:3] edc2F2B2- | 
[V:4] z8 | 
[V:5] z8 | 
[V:6] C,2F,3E,D,C, | 
[V:1] d2c2A2c2- | 
[V:2] f2edc2e2- | 
[V:3] BGABc3B | 
[V:4] z8 | 
[V:5] z8 | 
[V:6] B,,2F,3E,C,2 | 
[V:1] cAB2cBAG | 
[V:2] edd4^c2 | 
[V:3] A2F2G4 | 
[V:4] z8 | 
[V:5] z8 | 
[V:6] D,4E,4 | 
[V:1] F8 | 
[V:2] d8 | 
[V:3] A4z4 | 
[V:4] z2A2F2B2- | 
[V:5] z8 | 
[V:6] D,8- | 
[V:1] z8 | 
[V:2] z8 | 
[V:3] z2d2B2_e2- | 
[V:4] BAA2D2G2- | 
[V:5] z2A,2F,2B,2- | 
[V:6] D,4z4 | 
[V:1] z8 | 
[V:2] z8 | 
[V:3] edd4c2 | 
[V:4] GFD2_E4 | 
[V:5] B,A,A,3G,G,2- | 
[V:6] z8 | 
[V:1] z8 | 
[V:2] z8 | 
[V:3] d4z4 | 
[V:4] D2d4B2 | 
[V:5] G,2F,2G,4 | 
[V:6] z2D,2B,,2_E,2- | 
[V:1] z8 | 
[V:2] z2d2B2_e2- | 
[V:3] z8 | 
[V:4] G2B3Ac2 | 
[V:5] z2F,2D,2G,2- | 
[V:6] E,D,D,4C,2 | 
[V:1] z4z2A2 | 
[V:2] edd4^c2 | 
[V:3] z8 | 
[V:4] F2G2A4- | 
[V:5] G,F,D,2E,4 | 
[V:6] B,,4A,,4 | 
[V:1] F2B3AA2- | 
[V:2] d4G2A2 | 
[V:3] z2d2d4- | 
[V:4] A2d3cA2 | 
[V:5] D,4z2D,2 | 
[V:6] z2D,2G,2F,2 | 
[V:1] AGGF/E/F2A2- | 
[V:2] B2G2A2d2- | 
[V:3] d2Bcdef2- | 
[V:4] d2G2d4 | 
[V:5] B,,2_E,3D,D,2 | 
[V:6] D,2G,3F,F,2 | 
[V:1] AGG4^F2 | 
[V:2] d2cBA4 | 
[V:3] fefed4 | 
[V:4] z2d3cA2 | 
[V:5] B,,3C,D,4 | 
[V:6] D,3E,F,4 | 
[V:1] G8 | 
[V:2] G8 | 
[V:3] d4z4 | 
[V:4] B2d4cB | 
[V:5] G,,8 | 
[V:6] D,4z2D,2 | 
[V:1] z8 | 
[V:2] z8 | 
[V:3] d8 | 
[V:4] A4G3F | 
[V:5] z8 | 
[V:6] F,4G,2B,2- | 
[V:1] z8 | 
[V:2] z8 | 
[V:3] f4g4 | 
[V:4] D4z4 | 
[V:5] z2D,2E,2G,2- | 
[V:6] B,A,/G,/A,2G,2B,2- | 
[V:1] z8 | 
[V:2] z8 | 
[V:3] d2f3ec2 | 
[V:4] z8 | 
[V:5] G,F,D,3E,F,2 | 
[V:6] B,A,F,3G,A,2 | 
[V:1] z8 | 
[V:2] z8 | 
[V:3] d3cA2f2- | 
[V:4] z8 | 
[V:5] B,,C,D,E,F,G,A,2- | 
[V:6] B,2B,,C,D,E,F,G, | 
[V:1] z2A2B2c2 | 
[V:2] z8 | 
[V:3] fed4^c2 | 
[V:4] z8 | 
[V:5] A,G,F,2E,4 | 
[V:6] A,B,A,4G,2 | 
[V:1] F4E4 | 
[V:2] z8 | 
[V:3] d4z4 | 
[V:4] z2A2c4 | 
[V:5] D,4z4 | 
[V:6] A,8 | 
[V:1] D2d3cA2- | 
[V:2] z2d2f4 | 
[V:3] z8 | 
[V:4] G2B3AF2- | 
[V:5] z8 | 
[V:6] z8 | 
[V:1] ABcAB2A2 | 
[V:2] c4z2f2- | 
[V:3] z8 | 
[V:4] FGAFG2F2 | 
[V:5] z8 | 
[V:6] z8 | 
[V:1] F2B3A/G/A2 | 
[V:2] fedcd2A2 | 
[V:3] z8 | 
[V:4] D2G4F2 | 
[V:5] z8 | 
[V:6] z8 | 
[V:1] D2G4^F2 | 
[V:2] B2c2A4 | 
[V:3] z4z2F2 | 
[V:4] G2C2D4 | 
[V:5] z8 | 
[V:6] z8 | 
[V:1] G4z4 | 
[V:2] G4z4 | 
[V:3] B4A3B | 
[V:4] G4z4 | 
[V:5] z2G,,2D,4 | 
[V:6] z2G,2F,2D,2 | 
[V:1] z8 | 
[V:2] z8 | 
[V:3] cAd4c2 | 
[V:4] z8 | 
[V:5] C,2B,,2E,4 | 
[V:6] E,2F,2G,4 | 
[V:1] z8 | 
[V:2] z2d3cA2 | 
[V:3] d8 | 
[V:4] z8 | 
[V:5] D,2G,,A,,B,,C,D,2- | 
[V:6] G,,A,,B,,C,D,E,F,2- | 
[V:1] z8 | 
[V:2] B2c2F2A2- | 
[V:3] z8 | 
[V:4] z8 | 
[V:5] D,C,A,,2B,,2C,2 | 
[V:6] F,E,E,2D,2E,2- | 
[V:1] z8 | 
[V:2] AGG4^F2 | 
[V:3] z8 | 
[V:4] z2d3cA2 | 
[V:5] G,,4A,,4 | 
[V:6] E,D,D,4C,2 | 
[V:1] z2B3AF2 | 
[V:2] G4z4 | 
[V:3] d8 | 
[V:4] B3AG2F2 | 
[V:5] G,,2G,3F,D,2 | 
[V:6] D,2G,,A,,B,,C,D,2 | 
[V:1] G2A2D2A2- | 
[V:2] z2d2B2c2- | 
[V:3] G2d4e2- | 
[V:4] c2A2F2c2 | 
[V:5] E,2D,4C,2 | 
[V:6] C,2F,4E,2 | 
[V:1] AGG4^F2 | 
[V:2] cBG2A4 | 
[V:3] e2c2d2A2 | 
[V:4] z2G2d4 | 
[V:5] E,4D,4 | 
[V:6] C,4F,4 | 
[V:1] G6G2 | 
[V:2] G8- | 
[V:3] B4z4 | 
[V:4] d4z2G2- | 
[V:5] G,,8- | 
[V:6] D,8- | 
[V:1] B4A2d2- | 
[V:2] G4z4 | 
[V:3] d8 | 
[V:4] GABcd2B2 | 
[V:5] G,,4z4 | 
[V:6] D,8 | 
[V:1] dcA2B3c | 
[V:2] z8 | 
[V:3] f4g4 | 
[V:4] A4G2B2- | 
[V:5] z8 | 
[V:6] z4z2G,,2- | 
[V:1] d2G2z4 | 
[V:2] z4d4 | 
[V:3] d8 | 
[V:4] BAGFG2D2- | 
[V:5] z2G,,3A,,B,,C, | 
[V:6] G,,A,,B,,C,D,2G,,2 | 
[V:1] z8 | 
[V:2] f8 | 
[V:3] z2d4c2 | 
[V:4] DEFGA2F2 | 
[V:5] D,2B,,2A,,4 | 
[V:6] z2D,E,F,G,A,2 | 
[V:1] z2B3AGF | 
[V:2] g4d4 | 
[V:3] d4d4 | 
[V:4] z2B2G2B2- | 
[V:5] G,,8 | 
[V:6] D,2G,,A,,B,,C,D,2 | 
[V:1] G2F4ED | 
[V:2] d8 | 
[V:3] z8 | 
[V:4] BA/G/A2D2A2 | 
[V:5] z8 | 
[V:6] G,,2D,4C,B,, | 
[V:1] E4D4 | 
[V:2] c4d4 | 
[V:3] z8 | 
[V:4] A3GF2E2 | 
[V:5] z4z2D,2 | 
[V:6] A,,4D,4- | 
[V:1] z2A2B3A | 
[V:2] d8 | 
[V:3] z2d2f3e | 
[V:4] D4z4 | 
[V:5] F,3E,D,3C, | 
[V:6] D,4z4 | 
[V:1] G2F2G3A | 
[V:2] z8 | 
[V:3] d2c2B2A2 | 
[V:4] z2A2d3c | 
[V:5] B,,2A,,2G,,4 | 
[V:6] z8 | 
[V:1] BGA2D4 | 
[V:2] z8 | 
[V:3] G2f2g3f | 
[V:4] B2A2G2dc | 
[V:5] z8 | 
[V:6] z2A,2B,3A, | 
[V:1] z4z2G2 | 
[V:2] z4z2e2 | 
[V:3] e2d4^c2 | 
[V:4] BAA4G2 | 
[V:5] z8 | 
[V:6] G,2F,2E,4 | 
[V:1] d3cB2A2- | 
[V:2] f3ed3c | 
[V:3] d4z2f2 | 
[V:4] A4z2F2 | 
[V:5] D,8 | 
[V:6] D,4z2D,2 | 
[V:1] AGG4^F2 | 
[V:2] B2G2A4 | 
[V:3] e2c2fedc | 
[V:4] B2c2d4 | 
[V:5] E,4D,4 | 
[V:6] G,2E,2F,3D, | 
[V:1] [M:3/1]G12 | 
[V:2] [M:3/1]G12 | 
[V:3] [M:3/1]B8G4 | 
[V:4] [M:3/1]d8z4 | 
[V:5] [M:3/1]G,,12 | 
[V:6] [M:3/1]D,8z4 | 
[V:1] z12 | 
[V:2] z12 | 
[V:3] d8d4 | 
[V:4] A8B4 | 
[V:5] z12 | 
[V:6] D,8G,4- | 
[V:1] z12 | 
[V:2] z4z4F4- | 
[V:3] c4A8 | 
[V:4] G4d6cB | 
[V:5] C,4D,6E,2 | 
[V:6] G,4F,4D,4- | 
[V:1] z12 | 
[V:2] F4B8 | 
[V:3] z12 | 
[V:4] A4D6E2 | 
[V:5] F,4B,,6C,2 | 
[V:6] D,2E,2F,2D,2G,4 | 
[V:1] z12 | 
[V:2] A6B2c4 | 
[V:3] z12 | 
[V:4] F2D2F2G2A4 | 
[V:5] D,4D,4C,4 | 
[V:6] F,6D,2E,4 | 
[V:1] z12 | 
[V:2] d8c4 | 
[V:3] z12 | 
[V:4] B8A4 | 
[V:5] B,,4C,8 | 
[V:6] F,8E,4 | 
[V:1] z12 | 
[V:2] d12- | 
[V:3] d6c2A4 | 
[V:4] B8z4 | 
[V:5] B,,8z4 | 
[V:6] F,12 | 
[V:1] d6c2A4 | 
[V:2] d12 | 
[V:3] B2c2d2e2f4 | 
[V:4] B6A2F4 | 
[V:5] z12 | 
[V:6] z12 | 
[V:1] B4A6G2 | 
[V:2] z12 | 
[V:3] B4d4c4 | 
[V:4] G4D4F4 | 
[V:5] z12 | 
[V:6] z12 | 
[V:1] G8^F4 | 
[V:2] d6c2A4 | 
[V:3] B4A8 | 
[V:4] G4D8 | 
[V:5] z12 | 
[V:6] z4z4D,4 | 
[V:1] G4z4z4 | 
[V:2] B4A6G2 | 
[V:3] z12 | 
[V:4] z12 | 
[V:5] D,6C,2A,,4 | 
[V:6] G,,4D,4E,4 | 
[V:1] z12 | 
[V:2] G8F4 | 
[V:3] d6c2A4 | 
[V:4] z12 | 
[V:5] B,,6C,2D,4 | 
[V:6] D,6E,2F,4 | 
[V:1] z12 | 
[V:2] G8z4 | 
[V:3] B6A2F4 | 
[V:4] d6c2A4 | 
[V:5] G,,8z4 | 
[V:6] D,12- | 
[V:1] z12 | 
[V:2] d6c2A4 | 
[V:3] F6G2A4 | 
[V:4] B6A2F4 | 
[V:5] B,,3C,D,2E,2F,4 | 
[V:6] D,8z4 | 
[V:1] d6c2A4 | 
[V:2] B8A4 | 
[V:3] F2f4e2d3c | 
[V:4] F8F4 | 
[V:5] B,,6C,2D,4 | 
[V:6] D,6E,2F,4 | 
[V:1] B4A6G2 | 
[V:2] d8B4 | 
[V:3] d8G4 | 
[V:4] D8G4- | 
[V:5] G,,4D,4E,4 | 
[V:6] B,,4F,4G,4 | 
[V:1] G4F8 | 
[V:2] c4A8 | 
[V:3] g4f2e2d2c2 | 
[V:4] G4d8 | 
[V:5] C,4D,8 | 
[V:6] E,4F,8 | 
[V:1] [M:2/1]G8 | 
[V:2] [M:2/1]G4z2B2 | 
[V:3] [M:2/1]B4z2d2 | 
[V:4] [M:2/1]d3cBAd2 | 
[V:5] [M:2/1]G,,8 | 
[V:6] [M:2/1]D,8 | 
[V:1] z4z2F2 | 
[V:2] c2e3d/c/d2 | 
[V:3] e2g3f/e/f2 | 
[V:4] G2c2B2A2 | 
[V:5] z4z2D,2 | 
[V:6] C,4D,4 | 
[V:1] G2B3A/G/A2 | 
[V:2] B2G2A3B/A/ | 
[V:3] e2d2fedc | 
[V:4] G2d4d2 | 
[V:5] E,2G,3F,/E,/F,2 | 
[V:6] G,,4D,4 | 
[V:1] D2A2B2d2- | 
[V:2] B2A2G4 | 
[V:3] B2f2e2d2 | 
[V:4] d3cB2G2 | 
[V:5] G,2D,2z4 | 
[V:6] z2F,2G,2B,2- | 
[V:1] dc/B/c2F3G | 
[V:2] z4z2d2 | 
[V:3] e4d4 | 
[V:4] c4A3B | 
[V:5] z2A,,2D,3C, | 
[V:6] B,A,/G,/A,3D,D,2 | 
[V:1] A2d3cBA | 
[V:2] c2f3edc | 
[V:3] z8 | 
[V:4] c2d2D4 | 
[V:5] A,,2B,,3C,D,2 | 
[V:6] z2D,3E,F,2 | 
[V:1] B2A3GG2 | 
[V:2] d4B2c2 | 
[V:3] z4z2c2 | 
[V:4] G2F2G4 | 
[V:5] G,,2D,2E,2C,2 | 
[V:6] B,,2F,2E,4 | 
[V:1] F2DEFGA2- | 
[V:2] A4d3c | 
[V:3] f3edcf2 | 
[V:4] z2d2A2d2- | 
[V:5] D,4z2D,2 | 
[V:6] D,2F,3E,D,2 | 
[V:1] AGG4^F2 | 
[V:2] B2G2A4 | 
[V:3] g2e2fedc | 
[V:4] dBc2d4 | 
[V:5] E,4D,4 | 
[V:6] G,2C,2F,3E, | 
[V:1] G8- | 
[V:2] G8- | 
[V:3] B4z2B2 | 
[V:4] d8 | 
[V:5] G,,2G,4F,2 | 
[V:6] D,2G,3F,_E,D, | 
[V:1] G8- | 
[V:2] G8- | 
[V:3] c2B2c4 | 
[V:4] z2d2G3A | 
[V:5] _E,2D,2C,3B,, | 
[V:6] C,2D,2_E,4 | 
[V:1] G8 |]  
[V:2] G8 |]  
[V:3] d8 |]  
[V:4] B8 |]  
[V:5] G,,8 |]  
[V:6] D,8 |]  



